!!!COM: Mozart, Wolfgang Amadeus
!!!OTL: String Quartet No. 13 in D Minor
!!!OMD: Menuetto
!!!OMV: 3
!!!SCT1: K<sup>1</sup> 173
!!!SCA: Chronologisch-thematisches Verzeichnis sämtlicher Tonwerke Wolfgang Amade Mozarts (L. von Köchel; 1862, 2/1905, 3/1937, 1947)
!!!SCT2: K<sup>6</sup> 173
!!!YOR: Breitkopf & Härtel Edition
!!!ENC: Frances Bennion
!!!CDT: 1756/1/27/-1791/12/5/
!!!OCY: Österreich
!!!YEC: Copyright (c) 1994, 2000 Center for Computer Assisted Research in the Humanities
!!!YEM: Rights to all derivative editions reserved.
!!!YEM: Refer to licensing agreement for further details.
!!!YEN: United States of America
**kern	**kern	**kern	**kern
*k[b-]	*k[b-]	*k[b-]	*k[b-]
*F:	*F:	*F:	*F:
*clefC	*clefF	*clefG	*clefG
*M3/4	*M3/4	*M3/4	*M3/4
*tb32	*tb32	*tb32	*tb32
=1	=1	=1	=1
4D	8d	8f	2aa
.	8f	8a	.
2r	8d	8f	.
.	8f	8a	.
.	8d	8f	16gg
.	.	.	16ff
.	8f	8a	16ee
.	.	.	16dd
=2	=2	=2	=2
4A	8e	8g	4cc#
.	8g	8a	.
2r	8e	8g	4cc#
.	8g	8a	.
.	8e	8g	4cc#
.	8g	8a	.
=3	=3	=3	=3
4D	8d	8f	2dd
.	8f	8a	.
4F	8d	8f	.
.	8f	8a	.
4A	8c#	8e	8.ee
.	8e	8a	.
.	.	.	32dd
.	.	.	32ee
=4	=4	=4	=4
4D	4d	4f	4ff
2r	2r	2r	2r
=5	=5	=5	=5
2.AA	2.c	2.e-	2f
.	.	.	8g
.	.	.	8f
=6	=6	=6	=6
2.BB-	2.B-	4d	4f
.	.	4B-	4b-
.	.	4d	4dd
=7	=7	=7	=7
4C	4c	4e-	4ee-
4AA	4A	4c	4cc
4FF	4F	4f	4ff
=8	=8	=8	=8
4C	4B-	4e-	4ee-
2r	2r	8.d	8.dd
.	.	16c	16cc
.	.	4B-	4b-
=9	=9	=9	=9
2.r	2.r	2.r	4ff
.	.	.	4ee
.	.	.	4dd
=10	=10	=10	=10
4F	2.b	4dd	2.gg#
4E	.	4ee	.
4D	.	4ff	.
=11	=11	=11	=11
4C	8cc	8ee	2.aa
.	4a	4cc	.
4C	.	.	.
.	4e	4a	.
4C	.	.	.
.	8c	8e	.
=12	=12	=12	=12
4D	8f	8a	2.ff
.	4d	4f	.
4D	.	.	.
.	4A	4d	.
4D	.	.	.
.	8F	8A	.
=13	=13	=13	=13
4E	4B	8G#	8ee
.	.	8B	8dd
4E	8c	8e	8cc
.	8d	8d	8b
4E	4e	8c	8a
.	.	8B	8g#
=14	=14	=14	=14
4A	2e 2c	2A	2a
4E	.	.	.
4AA	4r	4r	4r
=15	=15	=15	=15
4AA	4A	4A	4A
4BB-	4B-	4B-	4B-
4r	4b-	4dd	8.gg
.	.	.	16gg
=16	=16	=16	=16
2.r	2a	2cc#	4.gg
.	.	.	24ff
.	.	.	24ee
.	.	.	24dd
.	4r	4r	8cc#
.	.	.	8r
=17	=17	=17	=17
4AA	4A	4A	4A
4BB-	4B-	4B-	4B-
4r	4b-	4dd	8.gg
.	.	.	16gg
=18	=18	=18	=18
2.r	2a	2cc#	4.gg
.	.	.	24ff
.	.	.	24ee
.	.	.	24dd
.	4r	4r	8cc#
.	.	.	8r
=19	=19	=19	=19
4D	4f	4a	4dd
4r	4r	4r	4r
4E	4B	4d	4g#
=20	=20	=20	=20
4AA	4A	4c#	4a
2r	2r	2r	2r
=21	=21	=21	=21
4D	8d	8f	2aa
.	8f	8a	.
2r	8d	8f	.
.	8f	8a	.
.	8d	8f	16gg
.	.	.	16ff
.	8f	8a	16ee
.	.	.	16dd
=22	=22	=22	=22
4A	8e	8g	4cc#
.	8g	8a	.
2r	8e	8g	4cc#
.	8g	8a	.
.	8e	8g	4cc#
.	8g	8a	.
=23	=23	=23	=23
4D	8d	8f	2dd
.	8f	8a	.
4F	8d	8f	.
.	8f	8a	.
4A	8c#	8e	8.ee
.	8e	8a	.
.	.	.	32dd
.	.	.	32ee
=24	=24	=24	=24
4D	4d	4f	4ff
2r	2r	2r	2r
=25	=25	=25	=25
2.GG	2.G	2.B-	2e-
.	.	.	8.f
.	.	.	16e-
=26	=26	=26	=26
4AA	4A	4c	4f#
4AA	4A	4c	4f#
8.AA	8.c	8.e-	4f#
16BB-	16B-	16d	.
=27	=27	=27	=27
2.BB-	2.B-	2.d	2g
.	.	.	8.a
.	.	.	16g
=28	=28	=28	=28
4FF#	4A	4d	4cc
4FF#	4A	4d	4cc
4FF#	4A	8.e-	4cc
.	.	16d	.
=29	=29	=29	=29
4GG	4G	4d	2b-
2r	2r	2r	.
.	.	.	8.cc
.	.	.	16b-
=30	=30	=30	=30
4r	4r	4r	2a
4C#	4e	4g	.
8.D	8.d	8.f	8.b-
16C	16c	16e	16a
=31	=31	=31	=31
4BB-	4B-	4d	4g#
4BB-	4d	4f	4g#
4BB-	4f	4d	4g#
=32	=32	=32	=32
4AA	4c#	4e	8.a
.	.	.	16cc#
2r	2r	2r	8.ee
.	.	.	16cc#
.	.	.	8.gg
.	.	.	16ee
=33	=33	=33	=33
2.r	2.r	2.r	4bb-
.	.	.	4aa
.	.	.	4gg
=34	=34	=34	=34
4B-	4g	2.ee	2.ccc#
4A	4a	.	.
4G	4b-	.	.
=35	=35	=35	=35
4F	8a	8dd	2.ddd
.	4f	4a	.
4F	.	.	.
.	4d	4f	.
4F	.	.	.
.	8A	8d	.
=36	=36	=36	=36
4G	8b-	8dd	2.bb-
.	4g	4b-	.
4G	.	.	.
.	4e	4g	.
4G	.	.	.
.	8B-	8d	.
=37	=37	=37	=37
4A	4e	8c#	8aa
.	.	8e	8gg
4A	4d	8a	8ff
.	.	8g	8ee
4A	8a	8f	8dd
.	8g	8e	8cc#
=38	=38	=38	=38
4B-	2.f	2.d	2.dd
4B-	.	.	.
4B-	.	.	.
=39	=39	=39	=39
4FF	8A	8d	2.dd
.	4d	4f	.
4FF	.	.	.
.	4f	4a	.
4FF	.	.	.
.	8a	8d	.
=40	=40	=40	=40
4GG	8B-	8d	2.b-
.	4d	4g	.
4GG	.	.	.
.	4g	4b-	.
4GG	.	.	.
.	8e	8g	.
=41	=41	=41	=41
4AA	4d	8f	8a
.	.	8e	8g
4AA	8A	4d	8f
.	8G	.	8e
4AA	8F	4A	8d
.	8E	.	8c#
=42	=42	=42	=42
2DD	2F	2A	2d
4r	4r	4r	4r
=43	=43	=43	=43
4F	4f	12a	12cc
.	.	12b-	12dd
.	.	12a	12cc
4r	4r	12ff	12aa
.	.	12ee	12gg
.	.	12dd	12ff
4FF	4F	12cc	12ee
.	.	12b-	12dd
.	.	12a	12cc
=44	=44	=44	=44
4C	4E	12g	12b-
.	.	12a	12cc
.	.	12g	12b-
4r	4r	12ee	12gg
.	.	12dd	12ff
.	.	12cc	12ee
4C	4e	12b-	12dd
.	.	12a	12cc
.	.	12g	12b-
=45	=45	=45	=45
4F	4f	12f	12a
.	.	12g	12b-
.	.	12f	12a
4BB-	4r	12f	12dd
.	.	12e	12cc
.	.	12d	12b-
4FF	4F	12c	12a
.	.	12B-	12g
.	.	12A	12f
=46	=46	=46	=46
12CC	12C	2A	2f
12C	12c	.	.
12BB	12B	.	.
12C	12c	.	.
12BB	12B	.	.
12C	12c	.	.
4CC	4C	4G	4e
=47	=47	=47	=47
2.r	2.r	2.r	12bb-
.	.	.	12gg
.	.	.	12ee
.	.	.	12cc
.	.	.	12b-
.	.	.	12g
.	.	.	12e
.	.	.	12c
.	.	.	12B-
=48	=48	=48	=48
4E	4g	2b-	12G
.	.	.	12B-
.	.	.	12c
4C	4e	.	12G
.	.	.	12B-
.	.	.	12c
4F	4f	4a	4A
=49	=49	=49	=49
2.r	2.r	2.r	12bb-
.	.	.	12gg
.	.	.	12ee
.	.	.	12cc
.	.	.	12b-
.	.	.	12g
.	.	.	12e
.	.	.	12c
.	.	.	12B-
=50	=50	=50	=50
4E	4g	2b-	12G
.	.	.	12B-
.	.	.	12c
4C	4e	.	12G
.	.	.	12B-
.	.	.	12c
4F	4f	4a	4A
=51	=51	=51	=51
4BB-	4B-	4f	4dd
4r	4r	4r	4r
4C	4G	4B-	4e
=52	=52	=52	=52
4F	4F	4A	4f
4C	2r	2r	2r
4FF	.	.	.
=53	=53	=53	=53
2.r	4c 4C	2.r	12gg
.	.	.	12aa-
.	.	.	12gg
.	4c	.	12aa-
.	.	.	12ccc
.	.	.	12bb-
.	4c	.	12aa-
.	.	.	12gg
.	.	.	12ff
=54	=54	=54	=54
2.r	4c 4C	12g	12ee
.	.	12a-	12ff
.	.	12g	12ee
.	4c	12a-	2ff
.	.	12cc	.
.	.	12b-	.
.	4c	12a-	.
.	.	12g	.
.	.	12f	.
=55	=55	=55	=55
2.r	4c 4C	12e	12gg
.	.	12f	12aa-
.	.	12e	12gg
.	4c	2f	12aa-
.	.	.	12ccc
.	.	.	12bb-
.	4c	.	12aa-
.	.	.	12gg
.	.	.	12ff
=56	=56	=56	=56
2.r	4c 4C	12g	12ee
.	.	12a-	12ff
.	.	12g	12ee
.	4c	12a-	2ff
.	.	12cc	.
.	.	12b-	.
.	4c	12a-	.
.	.	12g	.
.	.	12f	.
=57	=57	=57	=57
12c	12cc	12cc	12cc
12d-	12dd-	12dd-	12dd-
12c	12cc	12cc	12cc
4.d-	4.dd-	4.dd-	4.dd-
8c	8cc	8cc	8cc
=58	=58	=58	=58
12B	12b	12b	12b
12c	12cc	12cc	12cc
12B	12b	12b	12b
4.c	4.cc	4.cc	4.cc
8B-	8b-	8b-	8b-
=59	=59	=59	=59
12A-	12a-	12a-	12a-
12c	12cc	12cc	12cc
12B-	12b-	12b-	12b-
12A-	12a-	12a-	12a-
12c	12cc	12cc	12cc
12B-	12b-	12b-	12b-
12A-	12a-	12a-	12a-
12G	12g	12g	12g
12F	12f	12f	12f
=60	=60	=60	=60
4c	4cc	4cc	4cc
4C	4c	4c	4c
4r	4r	4r	4r
=61	=61	=61	=61
4F	4f	12a	12cc
.	.	12b-	12dd
.	.	12a	12cc
4r	4r	12ff	12aa
.	.	12ee	12gg
.	.	12dd	12ff
4FF	4F	12cc	12ee
.	.	12b-	12dd
.	.	12a	12cc
=62	=62	=62	=62
4C	4E	12g	12b-
.	.	12a	12cc
.	.	12g	12b-
4r	4r	12ee	12gg
.	.	12dd	12ff
.	.	12cc	12ee
4C	4e	12b-	12dd
.	.	12a	12cc
.	.	12g	12b-
=63	=63	=63	=63
4F	4f	12f	12a
.	.	12g	12b-
.	.	12f	12a
4BB-	4r	12f	12dd
.	.	12e	12cc
.	.	12d	12b-
4FF	4F	12c	12a
.	.	12B-	12g
.	.	12A	12f
=64	=64	=64	=64
12CC	12C	2A	2f
12C	12c	.	.
12BB	12B	.	.
12C	12c	.	.
12BB	12B	.	.
12C	12c	.	.
4CC	4C	4G	4e
=65	=65	=65	=65
2.r	2.r	2.r	12bb-
.	.	.	12gg
.	.	.	12ee
.	.	.	12cc
.	.	.	12b-
.	.	.	12g
.	.	.	12e
.	.	.	12c
.	.	.	12B-
=66	=66	=66	=66
4E	4g	2b-	12G
.	.	.	12B-
.	.	.	12c
4C	4e	.	12G
.	.	.	12B-
.	.	.	12c
4F	4f	4a	4A
=67	=67	=67	=67
2.r	2.r	2.r	12bb-
.	.	.	12gg
.	.	.	12ee
.	.	.	12cc
.	.	.	12b-
.	.	.	12g
.	.	.	12e
.	.	.	12c
.	.	.	12B-
=68	=68	=68	=68
4E	4g	2b-	12G
.	.	.	12B-
.	.	.	12c
4C	4e	.	12G
.	.	.	12B-
.	.	.	12c
4F	4f	4a	4A
=69	=69	=69	=69
4BB-	4B-	4f	4dd
4r	4r	4r	4r
4C	4G	4B-	4e
=70	=70	=70	=70
4F	4F	4A	4f
4C	2r	2r	2r
4FF	.	.	.
==	==	==	==
*-	*-	*-	*-
!!!RWG1: This file contains only pitch and duration data.
!!!RWG2: Transposing instruments are not transposed.
!!!RWG3: Spines may have incompatible meters.
!!!RWG4: Durations of rests and tied notes may be interpreted.
!!!RWG: Key is interpreted using the Humdrum key tool.
!!!AFT: stage1
!!!END: 1997/04/15
!!!KEY: 1260122239
!!!EMD: Converted from MuseData to Humdrum Dec 16, 2000, by Andreas Kornstaedt using muse2kern.
!!!EMD: Manual editing by Craig Sapp, Nov 2001
